flaticon/grooming/manicure-17.svg

<svg xmlns="http://www.w3.org/2000/svg" width="32" height="32" viewBox="0 0 24 24">
    <path d="M 19.167969 10.453125 L 19.167969 8.757812 C 19.167969 7.878906 18.445312 7.195312 17.601562 7.195312 L 16.742188 7.195312 C 16.722656 7.144531 16.71875 7.101562 16.71875 7.074219 C 16.71875 7.035156 16.761719 6.953125 16.882812 6.914062 C 17.320312 6.792969 17.644531 6.394531 17.601562 5.910156 C 17.5625 5.429688 17.242188 5.03125 16.761719 4.949219 C 16.640625 4.910156 16.601562 4.828125 16.601562 4.789062 C 16.601562 4.75 16.601562 4.628906 16.679688 4.546875 C 17 4.1875 17.042969 3.707031 16.800781 3.304688 C 16.558594 2.902344 16.078125 2.742188 15.597656 2.902344 C 15.515625 2.945312 15.4375 2.902344 15.398438 2.863281 C 15.355469 2.824219 15.277344 2.785156 15.316406 2.664062 L 15.316406 2.625 C 15.355469 2.261719 15.277344 1.902344 14.996094 1.660156 C 14.753906 1.378906 14.355469 1.300781 13.992188 1.417969 C 13.953125 1.417969 13.953125 1.460938 13.914062 1.460938 L 10.234375 3.53125 L 5.609375 0.214844 C 5.167969 -0.0234375 4.6875 -0.0625 4.167969 0.0976562 C 3.726562 0.214844 3.324219 0.539062 3.085938 0.980469 C 2.84375 1.417969 2.804688 1.902344 2.964844 2.382812 C 3.125 2.863281 3.484375 3.222656 3.925781 3.425781 L 9.089844 5.890625 L 9.5 10.003906 C 9.5 10.042969 9.5 10.042969 9.5 10.082031 C 9.589844 10.347656 9.761719 10.566406 9.988281 10.699219 C 8.90625 11.601562 8.296875 12.9375 8.296875 14.335938 L 8.296875 19.589844 C 8.296875 22.035156 10.261719 24 12.710938 24 L 16.71875 24 C 19.167969 24 21.132812 22.035156 21.132812 19.628906 L 21.132812 14.335938 C 21.132812 12.785156 20.421875 11.378906 19.167969 10.453125 Z M 18.285156 8.71875 L 18.285156 15.65625 C 18.285156 16.195312 18.128906 16.699219 17.855469 17.125 C 17.621094 17.480469 17.3125 17.78125 16.949219 18.003906 C 16.925781 18.015625 16.902344 18.03125 16.878906 18.042969 C 16.871094 18.046875 16.867188 18.050781 16.863281 18.050781 C 16.476562 18.265625 16.03125 18.386719 15.558594 18.386719 L 13.832031 18.386719 C 13.566406 18.386719 13.308594 18.34375 13.0625 18.273438 C 11.921875 17.890625 11.105469 16.816406 11.105469 15.539062 L 11.105469 10.605469 C 11.132812 10.582031 11.160156 10.554688 11.1875 10.523438 L 11.226562 10.484375 C 11.265625 10.441406 11.308594 10.421875 11.34375 10.414062 C 11.386719 10.429688 11.4375 10.476562 11.464844 10.5625 C 11.585938 11.003906 11.988281 11.285156 12.46875 11.285156 C 12.476562 11.285156 12.480469 11.285156 12.488281 11.285156 C 12.507812 11.285156 12.527344 11.285156 12.550781 11.285156 C 12.550781 11.285156 12.550781 11.285156 12.628906 11.285156 C 13.109375 11.246094 13.511719 10.925781 13.59375 10.445312 C 13.621094 10.359375 13.667969 10.316406 13.707031 10.296875 C 13.75 10.308594 13.796875 10.328125 13.832031 10.363281 C 14.0625 10.566406 14.339844 10.65625 14.613281 10.636719 C 14.824219 10.652344 15.039062 10.601562 15.238281 10.484375 C 15.636719 10.242188 15.796875 9.761719 15.636719 9.28125 C 15.597656 9.199219 15.636719 9.121094 15.679688 9.082031 C 15.699219 9.082031 15.730469 9.058594 15.773438 9.042969 C 15.871094 9.070312 15.972656 9.074219 16.070312 9.066406 C 16.464844 9.101562 16.863281 8.875 17.042969 8.519531 C 17.140625 8.332031 17.179688 8.140625 17.160156 7.957031 L 17.523438 7.957031 C 17.964844 7.957031 18.285156 8.316406 18.285156 8.71875 Z M 3.726562 2.140625 C 3.644531 1.859375 3.6875 1.582031 3.804688 1.339844 C 3.925781 1.097656 4.128906 0.898438 4.40625 0.816406 C 4.6875 0.738281 4.96875 0.777344 5.167969 0.898438 L 9.703125 4.105469 L 9.21875 5.03125 L 4.289062 2.703125 C 4.007812 2.582031 3.804688 2.421875 3.726562 2.140625 Z M 10.542969 4.308594 L 14.234375 2.261719 C 14.3125 2.261719 14.394531 2.300781 14.433594 2.34375 C 14.476562 2.382812 14.515625 2.421875 14.472656 2.542969 C 14.355469 2.902344 14.472656 3.265625 14.753906 3.503906 C 15.035156 3.746094 15.4375 3.828125 15.796875 3.707031 C 15.917969 3.625 16 3.746094 16.039062 3.785156 C 16.078125 3.828125 16.117188 3.945312 16 4.066406 C 15.71875 4.347656 15.636719 4.707031 15.757812 5.070312 C 15.878906 5.429688 16.160156 5.671875 16.558594 5.75 C 16.679688 5.792969 16.71875 5.910156 16.71875 5.953125 C 16.71875 5.992188 16.71875 6.113281 16.519531 6.152344 C 16.199219 6.273438 15.917969 6.554688 15.839844 6.914062 C 15.757812 7.277344 15.878906 7.636719 16.160156 7.917969 C 16.28125 7.996094 16.238281 8.117188 16.199219 8.15625 C 16.199219 8.1875 16.152344 8.242188 16.0625 8.25 C 16.042969 8.246094 16.023438 8.242188 16 8.238281 C 15.898438 8.203125 15.800781 8.191406 15.703125 8.191406 C 15.433594 8.183594 15.179688 8.304688 14.996094 8.519531 C 14.753906 8.800781 14.675781 9.199219 14.796875 9.5625 C 14.835938 9.683594 14.753906 9.761719 14.714844 9.800781 C 14.699219 9.820312 14.664062 9.835938 14.625 9.839844 C 14.578125 9.835938 14.527344 9.8125 14.472656 9.761719 C 14.273438 9.5625 14.03125 9.464844 13.78125 9.46875 C 13.664062 9.464844 13.546875 9.484375 13.433594 9.519531 C 13.070312 9.640625 12.832031 9.921875 12.75 10.324219 C 12.710938 10.4375 12.605469 10.476562 12.558594 10.484375 C 12.507812 10.476562 12.421875 10.453125 12.390625 10.324219 C 12.269531 10.003906 11.988281 9.722656 11.628906 9.640625 C 11.605469 9.636719 11.582031 9.632812 11.558594 9.628906 C 11.488281 9.601562 11.417969 9.601562 11.347656 9.601562 C 11.066406 9.601562 10.785156 9.722656 10.664062 9.921875 L 10.664062 9.925781 C 10.652344 9.9375 10.636719 9.949219 10.625 9.960938 C 10.542969 10.003906 10.464844 10.003906 10.421875 10.003906 C 10.382812 10.003906 10.304688 9.960938 10.261719 9.882812 L 9.820312 5.671875 Z M 20.332031 19.628906 C 20.332031 21.632812 18.726562 23.238281 16.71875 23.238281 L 12.710938 23.238281 C 10.703125 23.238281 9.101562 21.632812 9.101562 19.628906 L 9.101562 14.335938 C 9.101562 13.25 9.542969 12.207031 10.304688 11.488281 L 10.304688 15.496094 C 10.304688 15.90625 10.371094 16.296875 10.492188 16.664062 C 10.925781 18.109375 12.265625 19.1875 13.871094 19.1875 L 15.597656 19.1875 C 17.523438 19.1875 19.128906 17.621094 19.167969 15.699219 L 19.167969 11.527344 C 19.902344 12.285156 20.332031 13.269531 20.332031 14.335938 Z M 20.332031 19.628906"/>
    <path d="M 13.152344 8.597656 C 13.230469 8.71875 13.351562 8.757812 13.472656 8.757812 C 13.550781 8.757812 13.632812 8.757812 13.710938 8.71875 C 13.871094 8.597656 13.914062 8.359375 13.792969 8.15625 L 12.269531 5.992188 L 15.078125 5.992188 C 15.316406 5.992188 15.476562 5.832031 15.476562 5.589844 C 15.476562 5.351562 15.316406 5.191406 15.078125 5.191406 L 11.507812 5.191406 C 11.347656 5.191406 11.226562 5.269531 11.144531 5.390625 C 11.105469 5.511719 11.105469 5.671875 11.1875 5.792969 Z M 13.152344 8.597656"/>
</svg>

<svg xmlns="http://www.w3.org/2000/svg" width="32" height="32" viewBox="0 0 24 24">
    <path d="M19.168 10.453V8.758c0-.88-.723-1.563-1.566-1.563h-.86a.338.338 0 0 1-.023-.12c0-.04.043-.122.164-.16.437-.122.762-.52.719-1.005-.04-.48-.36-.879-.84-.96-.121-.04-.16-.122-.16-.16 0-.04 0-.161.078-.243.32-.36.363-.84.12-1.242-.241-.403-.722-.563-1.202-.403-.082.043-.16 0-.2-.039-.043-.039-.12-.078-.082-.199v-.039c.04-.363-.039-.723-.32-.965-.242-.281-.64-.36-1.004-.242-.039 0-.039.043-.078.043l-3.68 2.07L5.61.215c-.441-.238-.921-.277-1.441-.117-.441.117-.844.441-1.082.882a1.708 1.708 0 0 0-.121 1.403c.16.48.52.84.96 1.043L9.09 5.89l.41 4.113v.078c.09.266.262.484.488.617a4.728 4.728 0 0 0-1.691 3.637v5.254A4.399 4.399 0 0 0 12.71 24h4.008c2.449 0 4.414-1.965 4.414-4.371v-5.293c0-1.55-.711-2.957-1.965-3.883zm-.883-1.734v6.937c0 .54-.156 1.043-.43 1.469a2.905 2.905 0 0 1-.906.879l-.07.039c-.008.004-.012.008-.016.008a2.679 2.679 0 0 1-1.304.336h-1.727c-.266 0-.523-.043-.77-.114a2.874 2.874 0 0 1-1.957-2.734v-4.934a.812.812 0 0 0 .082-.082l.04-.039a.224.224 0 0 1 .117-.07c.043.016.094.063.12.149.122.44.524.722 1.005.722h.16c.48-.039.883-.36.965-.84.027-.086.074-.129.113-.148.043.012.09.031.125.066.23.203.508.293.781.274.211.015.426-.035.625-.153.399-.242.559-.722.399-1.203a.17.17 0 0 1 .043-.199c.02 0 .05-.023.093-.039a.85.85 0 0 0 .297.023c.395.036.793-.191.973-.546a.986.986 0 0 0 .117-.563h.363a.76.76 0 0 1 .762.762zM3.727 2.14a1.105 1.105 0 0 1 .078-.801.99.99 0 0 1 .601-.524.982.982 0 0 1 .762.082l4.535 3.207-.484.926-4.93-2.328c-.281-.121-.484-.281-.562-.562zm6.816 2.168l3.691-2.047c.079 0 .16.039.2.082.043.039.082.078.039.199a.88.88 0 0 0 .28.96c.282.243.684.325 1.044.204.121-.082.203.04.242.078.04.043.078.16-.039.281a.943.943 0 0 0-.242 1.004c.12.36.402.602.8.68.122.043.16.16.16.203 0 .04 0 .16-.198.2-.32.12-.602.402-.68.761-.082.363.039.723.32 1.004.121.078.078.2.04.238 0 .031-.048.086-.137.094A1.87 1.87 0 0 0 16 8.238a.889.889 0 0 0-.297-.047.895.895 0 0 0-.707.329 1.08 1.08 0 0 0-.2 1.043c.04.12-.042.199-.081.238-.016.02-.05.035-.09.039a.26.26 0 0 1-.152-.078.947.947 0 0 0-.692-.293 1.057 1.057 0 0 0-.347.05c-.364.122-.602.403-.684.805a.25.25 0 0 1-.191.16c-.051-.007-.137-.03-.168-.16a1.1 1.1 0 0 0-.762-.683l-.07-.012c-.07-.027-.141-.027-.211-.027-.282 0-.563.12-.684.32v.004l-.039.035c-.082.043-.16.043-.203.043-.04 0-.117-.043-.16-.121L9.82 5.672zm9.789 15.32a3.597 3.597 0 0 1-3.613 3.61H12.71a3.594 3.594 0 0 1-3.61-3.61v-5.293c0-1.086.442-2.129 1.204-2.848v4.008c0 .41.066.8.187 1.168a3.537 3.537 0 0 0 3.38 2.523h1.726c1.925 0 3.53-1.566 3.57-3.488v-4.172c.734.758 1.164 1.743 1.164 2.809zm0 0"/>
    <path d="M13.152 8.598c.078.12.2.16.32.16.079 0 .16 0 .239-.04.16-.12.203-.359.082-.562L12.27 5.992h2.808c.238 0 .399-.16.399-.402 0-.238-.16-.399-.399-.399h-3.57a.425.425 0 0 0-.363.2.476.476 0 0 0 .043.402zm0 0"/>
</svg>
